X: 33152
T: Princess Royal, The
R: reel
M: 4/4
K: Gmajor
G2 BB A2 c2|B2 d2 d4|e2 e2 d2 B2|A2G2 A4|
G2 BB A2 c2|B2 d2 d2 ef|g2 d2 B2 G2|A4 G2||

